calendar-week-begin.svg

<svg fill="currentColor" viewBox="0 0 24 24"><path d="M19 19H5V8h14m-3-7v2H8V1H6v2H5c-1.11 0-2 .89-2 2v14a2 2 0 0 0 2 2h14a2 2 0 0 0 2-2V5a2 2 0 0 0-2-2h-1V1m-9 9H7v7h2z"/></svg>

<svg  viewBox="0 0 24 24" fill="currentColor"><path  d="M19,19H5V8H19M16,1V3H8V1H6V3H5C3.89,3 3,3.89 3,5V19A2,2 0 0,0 5,21H19A2,2 0 0,0 21,19V5C21,3.89 20.1,3 19,3H18V1M9,10H7V17H9V10Z"/></svg>
